X:1
T:Title
%%score { 1 | 2 }
L:1/8
M:3/4
K:Bb
V:1 treble nm="Grand Piano"
V:2 bass 
V:1
 z2 z2[Q:1/4=100] [DF]2 | [_D=E]>[=DF] [_EG]2 [DF]2 | [EB]>[EA] [EA]3 A | A>B c2 E2 | %4
[M:5/8] [EG]>[DF] [DF]3 |[M:1/8] [DF] |[M:3/4] [DF]>[DB] [Fd]2 [^Fc]2 | [Gc]>[GB] [GB]3 [GB] | %8
 AG FB B>A |[M:2/4] [DB]4 |[M:1/4] [Fd]2 |[M:3/4] (3dcF c3 d | (3[D-c]D[F,B,D] [B,DF]3 [DB] | %13
 A>G F>e d>c |[M:2/4] d4 |[M:1/4] [Fd]2 |[M:3/4] (3dcF c3 e | (3[F-e]F[B,DF] [DB]3 [DB] | %18
 A>G[Q:1/4=94] F>e d>c[Q:1/4=98][Q:1/4=97][Q:1/4=95][Q:1/4=92][Q:1/4=91][Q:1/4=89][Q:1/4=88][Q:1/4=86][Q:1/4=84][Q:1/4=83][Q:1/4=81][Q:1/4=80][Q:1/4=78][Q:1/4=77] | %19
[M:2/4] [DB]4 |] %20
V:2
 z2 z2 [B,,B,]2 | [B,,B,]>[B,,B,] [B,,B,]2 [B,,B,]2 | [C,F,]>[C,F,] [C,F,]3 [F,CF] | %3
 [F,CF]>[F,DF] [F,EF]2 [F,A,C]2 |[M:5/8] [B,,B,]>[B,,B,] [B,,B,]3 |[M:1/8] [B,,B,] | %6
[M:3/4] [B,,B,]>[B,,B,] [B,,B,]2 [D,A,]2 | [E,G,]>[E,B,] [E,B,]3 [E,B,] | %8
 [F,B,F][F,B,E] [F,B,D][F,DF] [F,CE]>[F,CE] |[M:2/4] [B,,B,]4 |[M:1/4] [B,,B,]2 | %11
[M:3/4] (3:2:2[F,A,E]2 [F,A,E] [F,A,E]3 F | (3[B,,F,][K:treble]B[K:bass]B,, B,,3 [B,,F,] | %13
 [F,C]>[F,E] [F,D]>[K:treble][F,CF] [F,B,F]>[F,A,F] |[M:2/4] [B,F]4 |[M:1/4][K:bass] [B,,B,]2 | %16
[M:3/4] (3:2:2[F,A,E]2 [F,A,E] [F,A,E]3 [F,CF] | (3[B,,B,]-[B,,B,d]B,, [B,,F,]3 [B,,F,] | %18
 [F,C]>[F,E] [F,D]>[F,CF] [F,B,F]>[F,A,E] |[M:2/4] [B,,B,]4 |] %20

